!!!!SEGMENT: pl-wn--mus-iii-601--006-002_janiewicz-feliks--vie-trio-andante.krn
!!!cenid: 17xx:2402
!!!COM: Janiewicz, Feliks
!!!COM-rismID: pe30011012
!!!CDT: 1762-1848
!!!CNT:
!!!OPR: VIe Trio
!!!OTL: Andante
!!!OMV: 002
!!!PDT:
!!!AGN:
!!!SMS-siglum: PL-Wn
!!!SMS-shelfmark: Mus.III.601
!!!SMS-shelfwork: 006-002 M
!!!SMS-variant:
!!!SMS-altvar:
!!!NIFC-rismSourceID: 990069598
!!!NIFC-rismChildID: 990069598
!!!NIFC-islandoraID: none
!!!URL-pdf-islandora:
!!!URL-scan: https://polona2.pl/item/six-trios-pour-deux-violons-basse,MTAxMDA3MzY2/0/#item @EN{Scan on Polona} @PL{Skany w portalu Polona}
!!!IIIF: https://polona2.pl/iiif/item/MTAxMDA3MzY2/manifest.json
!!!ONB-nifc: UWAGA: źródło zawiera 6 Trio na 2 skrzypiec i wiolonczelę. Violino Primo (od skanu 3), Violino Secondo (od skanu 37), Basso (od skanu 61). Basso to partia wiolonczeli. Części Ie Trio: 1. Allegro, 2. Andante, 3. Rondo/Allegro
!!!AIN: 1 cello 2 violn
!!!key: D-
!!!OMD:
!!!OMD-mod: Andante
**kern	**dynam	**kern	**dynam	**kern	**dynam
*part3	*part3	*part2	*part2	*part1	*part1
*staff3	*	*staff2	*	*staff1	*
*I"BASSO	*	*I"VIOLINO SECONDO	*	*I"VIOLINO PRIMO	*
*mI"Violoncello	*	*mI"Violino II	*	*mI"Violino I	*
*I'vlc	*	*I'vl 2	*	*I'vl 1	*
*Icello	*	*Ivioln	*	*Ivioln	*
*ICstr	*	*ICstr	*	*ICstr	*
*clefF4	*	*clefG2	*	*clefG2	*
*k[b-e-a-d-g-]	*	*k[b-e-a-d-g-]	*	*k[b-e-a-d-g-]	*
*D-:	*	*D-:	*	*D-:	*
*M6/8	*	*M6/8	*	*M6/8	*
!LO:TX:a:B:t=Andante.:mod=	!	!LO:TX:a:B:t=Andante.:mod=	!	!LO:TX:a:B:t=Andante:mod=	!
*xywh-#76:490,431,3474,578	*	*xywh-#59:497,2983,3330,362	*	*xywh-#33:335,652,3578,621	*
8r	.	8r	.	8f/	.
=1	=1	=1	=1	=1	=1
4B-\	p	4f/	p	(4dd-\	>
!	!	!LO:SIC:s=8g-/:v	!	!	!
8e-\	.	8g-X/	.	8cc\)	]
8d-\	.	8f/	.	8b-\	.
8r	.	8r	.	8r	.
8r	.	8r	.	8f/	.
=2	=2	=2	=2	=2	=2
4B-\	.	4f/	.	(4dd-\	.
8e-\	.	8g-/	.	8cc\)	.
8d-\	.	8f/	.	8b-\	.
8r	.	8r	.	8r	.
8r	.	8r	.	8ff\	.
=3	=3	=3	=3	=3	=3
!	!	!	!LO:MO:mod=!LO&colon;HP&colon;ed=brack	!	!
!	!	!	!null	!	!
!	!	!	!LO:MO:null:mod=>	!	!
4.An\	>	4.f/	.	4cc\	<
.	.	.	.	8cc\	.
4A\	.	4g-/	.	4cc\	.
!	!	!	!	!	!LO:MO:null:mod=[[
8A\	.	8g-/	.	8cc\	[
=4	=4	=4	=4	=4	=4
[4.An\	.	4f/	.	[4.cc\	>
.	.	8f/	.	.	.
!	!	!	!LO:MO:null:mod=]	!	!
4A\]	]	4f/	.	4cc\]	]
8r	.	8r	.	8r	.
!	!	!	!	!LO:LB:g=original	!
=5	=5	=5	=5	=5	=5
!	!LO:MO:mod=!LO&colon;HP&colon;ed=brack	!	!	!	!
!	!null	!	!	!	!
!	!LO:MO:null:mod=>	!	!	!	!
*	*	*	*	*xywh-#33:387,1217,3474,433	*
(4.e-\	.	(4.an/	>	(4.gg-\	.
!	!LO:MO:null:mod=]	!	!	!	!
8d-\L)	.	8b-\L)	]	8ff\)	.
8An'\	.	8cc'\	.	8r	.
8B-'\J	.	8dd-'\J	.	8r	.
!LO:LB:g=original	!	!	!	!	!
=6	=6	=6	=6	=6	=6
*xywh-#76:579,937,3365,390	*	*	*	*	*
(4.e-\	.	(4.an/	.	(4.gg-\	.
8d-\L)	.	8b-\L)	.	8ff\)	.
8An'\	.	8cc'\	.	8r	.
[8B-'\J	.	[8dd-'\J	.	8r	.
=7	=7	=7	=7	=7	=7
8B-\L]	.	8dd-\L]	.	4.een\	>
8A-X\	.	8cc\	.	.	.
8Gn\J	.	8b-\J	.	.	.
!	!	!	!LO:DY:t= :mod=%s	!	!
!	!	!	!LO:MO:mod=!LO&colon;DY&colon;ed=brack	!	!
!	!	!	!null	!	!
8A-\L	.	4.cc\	p	8ff\L	.
!	!	!LO:LB:g=original	!	!	!
!	!	!	!	!LO:SIC:s=8ggn\:v	!
8En\	p	.	.	8gg-\	.
8F\J	.	.	.	8aa-\J	.
=8	=8	=8	=8	=8	=8
.	.	.	.	8qqaa-/	.
*	*	*xywh-#59:450,3262,3407,377	*	*	*
8B-\	.	8dd-\L	.	8ggn\L	.
4c\	.	8cc\	.	8ff\	.
.	.	8b-\J	.	8een\J	.
!LO:TX:t=P:problem:mixed beam	!	!	!	!	!
8F\L	.	4a-X/	.	4ff\	]
8FF/J	.	.	.	.	.
8r	.	8r	.	16dd-\LL	.
.	.	.	.	16ee\JJ	.
=9	=9	=9	=9	=9	=9
!	!	!	!LO:DY:t= :mod=%s	!	!
!	!	!	!LO:MO:mod=!LO&colon;DY&colon;ed=brack	!	!
!	!	!	!null	!	!
8D-\L	p	8a-/L	p	8ff\L	.
8D-\	.	8a-/	.	8ff\	.
8D-\J	.	8a-/J	.	8ff\J	.
4D-\	.	4a-/	.	8ff\L	.
.	.	.	.	16gg-X\L	.
.	.	.	.	16ff\	.
8r	.	(16e-/LL	.	16ee-\	.
.	.	16f/JJ)	.	16dd-\JJ	.
!	!	!	!	!LO:LB:g=original	!
=10	=10	=10	=10	=10	=10
*	*	*	*	*xywh-#33:378,1640,3460,362	*
8E-/L	.	8g-/L	.	4a-/	.
(16E-/L	.	8g-/	.	.	.
16D-/)	.	.	.	.	.
(16C/	.	8g-/J	.	8a-/	.
16BB-/JJ)	.	.	.	.	.
4.AA-/	.	8g-/L	.	8a-\L	.
.	.	(16a-/L	.	8cc\	.
.	.	16g-/)	.	.	.
.	.	(16f/	.	16dd-\L	.
.	.	16e-/JJ)	.	16ee-\JJ	.
=11	=11	=11	=11	=11	=11
8D-\L	.	8d-/L	.	8ff\L	.
8D-\	.	8a-/	.	8ff\	.
8D-\J	.	8a-/J	.	8ff\J	.
4D-\	.	4a-/	.	8ff\L	.
.	.	.	.	16gg-\L	.
.	.	.	.	16ff\	.
8r	.	16e-/LL	.	16ee-\	.
!LO:LB:g=original	!	!	!	!	!
.	.	16f/JJ	.	16dd-\JJ	.
=12	=12	=12	=12	=12	=12
*xywh-#76:569,1286,3396,364	*	*	*	*	*
8E-\L	.	8g-/L	.	4a-/	.
16E-\L	.	8g-/	.	.	.
16D-\	.	.	.	.	.
16C\	.	8g-/J	.	8a-/	.
16BB-\JJ	.	.	.	.	.
4.AA-/	.	8g-/L	.	4a-/	.
.	.	(16a-/L	.	.	.
.	.	16g-/)	.	.	.
!	!	!LO:SIC:s=(16f/:v	!	!	!
.	.	16f/	.	16dd-\LL	.
!	!	!LO:SIC:s=16e-/JJ):v	!	!	!
.	.	16e-/JJ	.	16ee-\JJ	.
=13	=13	=13	=13	=13	=13
4D-\	.	16d-'/LL	.	8ff\L	.
.	.	16f'/JJ	.	.	.
.	.	4a-/	.	16gg-\L	.
.	.	.	.	16ff\	.
8r	.	.	.	16ee-\	.
.	.	.	.	16dd-\JJ	.
4C/	.	16e-/LL	.	8gg-\L	.
.	.	16g-/JJ	.	.	.
.	.	4a-/	.	16aa-\L	.
.	.	.	.	16gg-\	.
8r	.	.	.	16ff\	.
.	.	.	.	16ee-\JJ	.
!	!	!	!	!LO:LB:g=original	!
=14	=14	=14	=14	=14	=14
*	*	*	*	*xywh-#33:406,2012,3380,409	*
4C-X/	.	16f/LL	.	8aa-\L	.
.	.	16a-/JJ	.	.	.
.	.	4dd-\	.	16bb-\L	.
.	.	.	.	16aa-\	.
!LO:SIC:s=8c-\:v	!	!	!	!	!
8c\	.	.	.	16gg-\	.
.	.	.	.	16ff\JJ	.
16B-\LL	.	8dd-\	.	16gg-\LL	.
16A-\	.	.	.	16aa-\	.
16G-\	.	[4dd-\	.	16bb-\	.
!	!	!LO:LB:g=original	!	!	!
16A-\	.	.	.	16ccc\	.
16B-\	.	.	.	16ddd-\	.
16G-\JJ	.	.	.	16bb-\JJ	.
=15	=15	=15	=15	=15	=15
*	*	*xywh-#59:435,3593,3413,403	*	*	*
4F\	.	8dd-\L]	.	16aa-\LL	.
.	.	.	.	16ddd-\	.
.	.	8dd-\	.	16ccc\	.
.	.	.	.	16ddd-\	.
8G-\	.	[8dd-\J	.	16bb-\	.
.	.	.	.	16eee-\JJ	.
4F\	.	8dd-\L]	.	16aa-\LL	.
.	.	.	.	16ddd-\	.
.	.	8dd-\	.	16ccc\	.
.	.	.	.	16ddd-\	.
8G-\	.	[8dd-\J	.	16bb-\	.
.	.	.	.	16eee-\JJ	.
=16	=16	=16	=16	=16	=16
8F\	.	8dd-\]	.	4aa-\	.
4D-\	.	8r	.	.	.
.	.	8r	.	32bb-\LLL	.
.	.	.	.	32aa-\	.
.	.	.	.	32gg-\	.
.	.	.	.	32ff\JJJ	.
8AA-/	.	8dd-\L	.	4.ee-T\	.
!	!	!	!	!LO:LB:g=original	!
4A-\	.	8cc\	.	.	.
.	.	8g-\J	.	.	.
=17	=17	=17	=17	=17	=17
*	*	*	*	*xywh-#33:418,2393,3399,508	*
8D-\L	.	8f/L	.	[4.dd-\	.
8F\	.	8a-/	.	.	.
8A-\J	.	8f/J	.	.	.
4D-\	.	4d-/	.	8dd-\]	.
.	.	.	.	8r	.
8r	.	8r	.	8ff\	.
!LO:LB:g=original	!	!	!	!	!
=18	=18	=18	=18	=18	=18
*xywh-#76:626,1603,3313,364	*	*	*	*	*
4r	.	4r	.	4gg-\	.
8r	.	8r	.	8ff\	.
8r	.	8r	.	8an/	.
!	!	!	!LO:DY:t= :mod=%s	!	!
!	!	!	!LO:MO:mod=!LO&colon;DY&colon;ed=brack	!	!
!	!	!	!null	!	!
8C'/L	p	8fL 8An'/	p	8r	.
8C'/J	.	8fJ 8A'/	.	8ff\	.
=19	=19	=19	=19	=19	=19
4r	.	4r	.	(4gg-\	.
8r	.	8r	.	8ff\)	.
8r	.	8r	.	8b-\	.
8D-\L	.	8fL 8B-/	.	8r	.
8D-\J	.	8fJ 8B-/	.	8ff\	.
=20	=20	=20	=20	=20	=20
!!LO:MO:ori
!	!	!	!LO:MO:mod=!LO&colon;HP&colon;ed=brack	!	!
!	!	!	!null	!	!
!	!LO:DY:a	!	!LO:MO:null:mod=>	!	!
4C;/	>	(4.f 4.An/	.	4.eee-;\	.
!	!LO:MO:null:mod=]]	!	!	!	!
8FF;/	.	.	.	.	.
.	.	.	.	8qqccc/L	.
.	.	.	.	8qqaan/	.
.	.	.	.	8qqgg-/	.
.	.	.	.	8qqee-/	.
.	.	.	.	8qqcc/	.
!	!	!	!	!LO:SIC:s=8qqa/:v	!
.	.	.	.	8qqa-/	.
.	.	.	.	8qqg-/	.
.	.	.	.	8qqe-/	.
.	.	.	.	8qqc/J	.
!	!	!	!LO:MO:null:mod=]]	!	!
4r	.	8f 8c;/)	.	8An;/	.
.	.	8r	.	8r	.
!	!LO:MO:null:mod=.	!	!	!	!
8r	]	8r	.	(8f/	.
!	!	!	!	!LO:LB:g=original	!
=21	=21	=21	=21	=21	=21
!!LO:MO:end
!!LO:MO:mod
!! (4.C;/	>	(4.f 4.An;/	>	4.eee-;\	.
!! .	.	.	.	.	.
!! .	.	.	.	8qqccc/L	.
!! .	.	.	.	8qqaan/	.
!! .	.	.	.	8qqgg-/	.
!! .	.	.	.	8qqee-/	.
!! .	.	.	.	8qqcc/	.
!! .	.	.	.	8qqa/	.
!! .	.	.	.	8qqg-/	.
!! .	.	.	.	8qqe-/	.
!! .	.	.	.	8qqc/J	.
!! 8FF;)/	]]	8f 8c;/)	]]	8An;/	.
!! 8r	.	8r	.	8r	.
!! 8r	.	8r	.	8f/	.
!! !	!	!	!	!LO:LB:g=original	!
!! =21	=21	=21	=21	=21	=21
!!LO:MO:end
!	!	!	!	!LO:SIC:s=(4dd-\:v	!
*	*	*	*	*xywh-#33:408,2821,3465,513	*
4B-\	.	4f/	.	4dd-\	.
8e-\	.	8g-/	.	8cc\)	.
4d-\	.	4f/	.	8b-\	.
.	.	.	.	8r	.
8r	.	8r	.	8f/	.
=22	=22	=22	=22	=22	=22
4B-\	.	4f/	.	(4dd-\	.
8e-\	.	8g-/	.	8cc\)	.
4d-\	.	4f/	.	8b-\	.
.	.	.	.	8r	.
8r	.	8r	.	8ff\	.
!	!	!LO:LB:g=original	!	!	!
=23	=23	=23	=23	=23	=23
!	!	!	!LO:MO:mod=!LO&colon;HP&colon;ed=brack	!	!
!	!	!	!null	!	!
!	!	!	!LO:MO:null:mod=>	!	!
*	*	*xywh-#59:404,3919,3397,377	*	*	*
4.An\	>	4.f/	.	4cc\	<
.	.	.	.	8cc\	.
4A\	.	4g-/	.	4cc\	.
8A\	.	8g-/	.	8cc\	[
=24	=24	=24	=24	=24	=24
[4.An\	.	4f/	.	[4.cc\	>
.	.	8f/	.	.	.
!	!	!	!LO:MO:null:mod=]	!	!
4A\]	]	4f/	.	4cc\]	]
8r	.	8r	.	8r	.
=25	=25	=25	=25	=25	=25
(4.e-\	.	(4.an/	.	(4.gg-\	.
8d-\L)	.	8b-\L)	.	8ff\)	.
8An'\	.	8cc'\	.	8r	.
8B-'\J	.	8dd-'\J	.	8r	.
!LO:LB:g=original	!	!	!	!LO:LB:g=original	!
=26	=26	=26	=26	=26	=26
*xywh-#76:610,1916,3354,333	*	*	*	*xywh-#33:427,3245,3427,480	*
(4.e-\	.	(4.an/	.	(4.gg-\	.
8d-\L)	.	8b-\L)	.	8ff\)	.
8An\	.	8cc\	.	8r	.
[8B-\J	.	[8dd-\J	.	8r	.
=27	=27	=27	=27	=27	=27
8B-\L]	.	8dd-\L]	.	4.een\	>
8A-X\	.	8cc\	.	.	.
8Gn\J	.	8b-\J	.	.	.
!	!	!	!LO:DY:t= :mod=%s	!	!
!	!	!	!LO:MO:mod=!LO&colon;DY&colon;ed=brack	!	!
!	!	!	!null	!	!
8A-\L	.	(4.cc\	p	8ff\L	.
!	!LO:DY:t= :mod=%s	!	!	!	!
!	!LO:MO:mod=!LO&colon;DY&colon;ed=brack	!	!	!	!
!	!null	!	!	!	!
8En\	p	.	.	8ggn\	.
8F\J	.	.	.	8aa-\J	]
=28	=28	=28	=28	=28	=28
8A-\L	.	8cc-X\L)	.	4.ddn\	>
8G-X\	.	8b-\	.	.	.
8F\J	.	8a-\J	.	.	.
8G-\L	.	(4.b-\	.	8ee-X\L	.
8Dn\	.	.	.	8ff\	.
[8E-\J	.	.	.	8gg-X\J	]
=29	=29	=29	=29	=29	=29
8E-\L]	.	8g-/L)	.	4.an/	p
8D-X\	.	8f/	.	.	.
8C\J	.	8e-/J	.	.	.
8D-/L	.	4.f/	.	8b-\L	.
8AAn/	.	.	.	8cc\	.
8BB-/J	.	.	.	8dd-\J	.
!	!	!	!	!LO:LB:g=original	!
=30	=30	=30	=30	=30	=30
*	*	*	*	*xywh-#33:413,3654,3389,437	*
.	.	.	.	8qqdd-/	.
8E-\	.	8g-/L	.	8cc\L	.
4F\	.	8f/	.	8b-\	.
.	.	8e-/J	.	8an\J	.
!LO:TX:t=P:problem:mixed beam	!	!	!	!	!
8BB-/L	.	4d-/	.	8b-\	.
8B-\J	.	.	.	8r	.
8r	.	8r	.	8ff\	.
!LO:LB:g=original	!	!LO:LB:g=original	!	!	!
=31	=31	=31	=31	=31	=31
*xywh-#76:600,2249,3380,390	*	*xywh-#59:404,4255,3433,398	*	*	*
4.An\	.	4.f/	.	4cc\	>
.	.	.	.	8cc\	.
!	!	!	!LO:DY:t= :mod=%s	!	!
!	!	!	!LO:MO:mod=!LO&colon;DY&colon;ed=brack	!	!
!	!	!	!null	!	!
4A\	p	4g-/	p	4cc\	.
8A\	.	8g-/	.	8cc\	]]
=32	=32	=32	=32	=32	=32
!LO:SIC:s=4A\:v	!	!	!	!	!
4A-\	.	4f/	.	4cc\	.
8r	.	8r	.	8r	.
4B-\	pp	4f/	pp	4dd-\	p
8r	.	8r	.	8r	.
=33	=33	=33	=33	=33	=33
4.B-\	.	(8f/L	.	4.dd-\	.
.	.	8g-/)	.	.	.
.	.	8g-`/J	.	.	.
(8B-\L	.	4.g-/	.	(8ddn\L	.
8c-X\)	.	.	.	8ee-\)	.
8c-'\J	.	.	.	8ee-`\J	.
=34	=34	=34	=34	=34	=34
4.c-X\	.	(8gn/L	.	4.ee-\	.
.	.	8a-/)	.	.	.
.	.	8a-`/J	.	.	.
!	!	!	!LO:MO:mod=!LO&colon;HP&colon;b&colon;i&colon;t=cresc.	!	!LO:MO:mod=!LO&colon;HP&colon;b&colon;i&colon;t=cresc.
!	!	!	!LO:HP:t=cres	!	!LO:HP:t=cres
(8cn\L	.	4.a-`/	<	8een\L	<
8d-\)	.	.	.	8ff\	.
8d-'\J	.	.	.	8ff\J	.
!	!	!	!	!LO:LB:g=original	!
=35	=35	=35	=35	=35	=35
!	!LO:MO:mod=!LO&colon;HP&colon;b&colon;i&colon;t=cresc. 	!	!	!	!
!	!LO:HP:t=cres	!	!	!	!
*	*	*	*	*xywh-#33:419,4038,3427,433	*
4.d-\	<	(8an/L	.	4.ff\	.
.	.	8b-/)	.	.	.
.	.	8b-`/J	.	.	.
8dn\L	.	4b-`/	.	8ff\L	.
8e-\	.	.	.	8gg-\	.
8e-\J	.	8ryy	.	8gg-\J	.
=36	=36	=36	=36	=36	=36
!	!LO:DY:b:t=F	!	!LO:DY:b:t=F	!	!
!	!	!	!	!	!LO:DY:t= :mod=%s
!	!	!	!	!	!LO:MO:mod=!LO&colon;DY&colon;ed=
!	!	!	!	!	!null
8e-\L	f	8an/L	f	8gg-\L	f
!	!	!	!	!	!LO:DY:b:t=F
!	!	!	!	!	!LO:MO:mod=!null:null
16e-\L	.	8a/	.	8gg-\	f
16c\	.	.	.	.	.
16An\	.	8a/J	.	8gg-\J	.
16G-X\JJ	.	.	.	.	.
4E-\	.	4a/	.	4gg-\	.
8r	.	8r	.	8r	.
!LO:LB:g=original	!	!	!	!	!
=37	=37	=37	=37	=37	=37
*xywh-#76:631,2593,3370,349	*	*	*	*	*
4D-\	.	[2.b-\	.	(16ff\LL	p
.	.	.	.	16bb-\	.
.	.	.	.	16aan\	.
.	.	.	.	16aa-X\	.
8E-\	.	.	.	16ggn\	.
.	.	.	.	16gg-X\JJ	.
4D-\	.	.	.	16ff\LL)	.
.	.	.	.	(16bb-\	.
.	.	.	.	16aan\	.
.	.	.	.	16aa-X\	.
8E-\	.	.	.	16ggn\	.
.	.	.	.	16gg-X\JJ)	.
!	!	!	!	!LO:LB:g=original	!
=38	=38	=38	=38	=38	=38
*	*	*	*	*xywh-#33:420,4433,3399,607	*
8F/L	.	8b-\L]	.	4.ff\	.
8D-/	.	8b-\	.	.	.
8BB-/J	.	[8b-\J	.	.	.
8FF/L	.	8b-\L]	.	16bb-\LL	.
.	.	.	.	16aan\	.
8BB-/	.	8b-\	.	16bb-\	.
.	.	.	.	16ff\	.
8D-/J	.	[8b-\J	.	16dd-\	.
!	!	!LO:LB:g=original	!	!	!
.	.	.	.	16b-\JJ	.
=39	=39	=39	=39	=39	=39
*	*	*xywh-#59:388,4566,3470,475	*	*	*
8F\L	.	8b-\L]	.	2.cct\	.
8F\	.	8b-\	.	.	.
8F\J	.	8b-\J	.	.	.
!LO:TX:t=P:problem:mixed beam	!	!	!	!	!
8F\L	.	4an/	.	.	.
8FF/	.	.	.	.	.
8F\J	.	8e-/	.	.	.
=40	=40	=40	=40	=40	=40
!	!	!	!LO:DY:t= :mod=%s	!	!
!	!	!	!LO:MO:mod=!LO&colon;DY&colon;ed=brack	!	!
!	!	!	!null	!	!
4BB-/	p	(16d-/LL	p	8.b-/L	.
.	.	16f/)	.	.	.
.	.	(16g-/	.	.	.
!	!	!	!	!LO:MO:mod=!LO&colon;TX&colon;b&colon;i&colon;t=dolce	!
!	!	!	!	!LO:TX:b:i:t=dol	!
.	.	16f/	.	16f/L	.
8r	.	16en/	.	16b-/	.
.	.	16f/JJ)	.	16dd-/JJ	.
8AAn/	.	(16e/LL	.	8cc\L	.
.	.	16f/	.	.	.
8r	.	16g-/	.	8cc\	.
.	.	16f/)	.	.	.
8FF/	.	(16e/	.	16cc\L	.
.	.	16f/JJ)	.	16dd-\JJ	.
=41	=41	=41	=41	=41	=41
4BB-/	.	(16d-/LL	.	8.b-/L	.
.	.	16f/)	.	.	.
.	.	(16g-/	.	.	.
.	.	16f/	.	16f/L	.
8r	.	16en/	.	16b-/	.
.	.	16f/JJ)	.	16dd-/JJ	.
8AAn/	.	(16e/LL	.	8cc\L	.
.	.	16f/	.	.	.
8r	.	16g-/	.	8cc\	.
.	.	16f/)	.	.	.
8F\	.	(16e/	.	16cc\L	.
.	.	16f/JJ)	.	16dd-\JJ	.
=42	=42	=42	=42	=42	=42
!LO:TX:t=P:problem:mixed beam	!	!	!	!	!
8B-\L	pp	(16d-/LL	pp	8b-\	p
.	.	16f/	.	.	.
8BB-/	.	16d-/	.	8r	.
.	.	16f/	.	.	.
8BB-/J	.	16d-/	.	8dd-\	.
.	.	16f/JJ)	.	.	.
4BB-/	.	4d-/	.	4b-\	.
8r	.	8r	.	8r	.
==	==	==	==	==	==
*-	*-	*-	*-	*-	*-
!!!system-decoration: [(s1,s2,s3)]
!!!filter-modern: sic -sq | shed -e "s/LO:DY:(a|b|rj)/LO:dy:$1/L" | shed -e "s/TX(.*):t=P:/tx$1:t=P:/LG" | modori -m | autostem -r | shed -e "s/yy//" | shed -k -e "s/\(y([^y])/($1/" | shed -e "s/^(\d+[\/\\]right)/$1yy/I; s/^(\d+[\/\\]left)/$1yy/I" | shed -k -e "s/[<>]//g" | shed -k -e "s/r[a-gA-G]+/r/D"
!!!RDF**dynam: < = cres
!!!ENC: Mateusz Solarz
!!!END: 2022-05-25
!!!ENC: Julita Ruszuk
!!!END: 2022-07-03
!!!EED-modern: Antoni Szymański
!!!END-modern: 2022-08-15
!!!ENC-iiif: Konrad Tyszka
!!!END-iiif: 2022-09-05
!!!YEC: Copyright 2022 Narodowy Instytut Fryderyka Chopina (https://polishscores.org)
!!!YEM: License CC-BY-4.0 (https://creativecommons.org/licenses/by/4.0)
